!!!SOCIAL_FUNCTION: bear dance songs
!!!PDT:	1943
!!!LING_GROUP: Muskogean
!!!LANG: Non-Tone
Specific Region: Oklahoma, California, Mississippi, Louisiana, Texas, Alabama
!!!REG: Southeast
!!!COM: Anon.
!!!OTL: Bear Dance Song (b)
!!!ODT: <1933//
!!!MPN: Lapintabeseihoke [Kills it Himself, Sidney Wesley]
!!!MPN: Atobaantci [Putting it Back, Mary Hiekman]
!!!MLC: Philadelphia, Mississippi, United States of America
!! Song was recorded in January 1933.
!!!AGN: monody
!!!AMT: irregular
!!!RWG: Transcribed pitches, durations, and meters are only approximate.
**kern
*ICvox
*Imale
*clefF4
*k[f#c#g#]
*M2/4
*MM84
=1-
8.A
16A
8A
16A
16c#
=2
8.B
16A
8A
16F#
16r
=3
8A
8A
8A
8r
=4
4A
8F#
16F#
16r
=5
8A
8A
8A
8r
=6
8A
8A
8F#
16F#
16r
=7
8A
8A
8A
8r
=8
16A
8.e
16c#
8.B
=9
16c#
8.B
16A
16F#
8r
=10
16A
8.A
8A
8r
=11
16A
8.A
8A
16A
16c#
=12
16B
8.A
16A
16F#
8r
=13
16A
8.A
8A
8r
*M3/4
=14
16A
8.e
16c#
8.B
16A
16F#
8r
*M2/4
=15
16A
8.A
8A
8r
=16
16A
8.A
16F#
16F#
8r
=17
16A
8.A
8A
8r
==
*-
!!!CNT: Choctaw
!!!TXO: Choctaw
!!!OCY: United States
!!!OCL: Frances Densmore
!!!YOR: Frances Densmore, "Choctaw Music"
!!!YOR: Bulletin 136, page 158, No. 41
!!!PPR: Smithsonian Institution, Bureau of American Ethnology
!!!PPR: Government Printing Office
!!!PDT: 1943
!!!PPP: Washington, DC, United States of America
!!!YEC: Electronic Copyright 2000 David Huron
!!!YER: August 2000
!!!YEN: United States of America
!!!ENC: David Huron
!!!RDT: August 28, 2000
!!!EEV: Release 1.0
!!!AIN: vox
